X: 1
T: Roll Him Over
C: Ed Pearlman 1981
R: jig
B: Pinewoods Alternates
Z: 2006 John Chambers <jc:trillian.mit.edu>
M: 6/8
L: 1/8
K: Am
D \
| "Am"Eed c>Ac | "G"Bdc B>AG | "Am"Eed c>Ac | "G"d2B "Em"G2D \
| "Am"Eed c2A  | "G"Bdc B>cd | "Am"ece "G"d2B | "E7"E^F^G "Am"A2 ||
B \
| "Am"c2e A2e  | cBc dcA | "G"B2d G2d | BAB "Em"cBG \
| "Am"Eed c>Ac | "G"Bdc B>cd | "Am"e2c "Dm"A2F | "E7"E^F^G "Am"A2 |]
